img/prop-icon7.svg

<svg width="30" height="30" viewBox="0 0 30 30" fill="none" xmlns="http://www.w3.org/2000/svg">
<g clip-path="url(#clip0_163_3892)">
<path d="M27.2382 10.3278C27.1281 10.2184 26.9792 10.157 26.824 10.1567C26.6699 10.1567 26.5187 10.2189 26.4098 10.3278C26.3004 10.438 26.2387 10.5868 26.238 10.7421C26.238 10.8968 26.3007 11.048 26.4098 11.1569C26.5199 11.2664 26.6687 11.3281 26.824 11.3286C26.9787 11.3286 27.1293 11.266 27.2382 11.1569C27.3478 11.048 27.4099 10.8968 27.4099 10.7421C27.4099 10.588 27.3478 10.4374 27.2382 10.3278Z" fill="#E0E3E4"/>
<path d="M29.3874 8.47097C28.854 7.8033 28.058 7.4205 27.2036 7.4205C25.8888 7.4205 24.7678 8.31611 24.4776 9.59844L23.3876 14.4133H20.6294C20.6423 14.3759 20.6548 14.3383 20.6651 14.2995C20.7451 14.0017 20.742 13.6877 20.6562 13.3915C21.5644 13.3591 22.2935 12.6101 22.2935 11.694C22.2935 11.1395 22.0264 10.6463 21.6141 10.336L21.7837 10.1664C22.1046 9.84559 22.2813 9.41908 22.2813 8.96539C22.2813 8.5117 22.1045 8.08519 21.7837 7.76439C21.4629 7.44347 21.0364 7.26681 20.5827 7.26681C20.129 7.26681 19.7025 7.44353 19.3816 7.76433L19.212 7.9339C19.1014 7.7872 18.9678 7.65928 18.8165 7.55503L18.965 7.40656C19.6273 6.74421 19.6273 5.66667 18.965 5.00438C18.6442 4.68352 18.2177 4.50686 17.764 4.50686C17.3102 4.50686 16.8837 4.68358 16.5629 5.00438L16.3932 5.17401C16.2599 4.99702 16.0935 4.84761 15.9032 4.73409C16.1731 4.42489 16.3208 4.03354 16.3208 3.61934C16.3208 3.16559 16.1441 2.73909 15.8233 2.41823C15.4313 2.02618 14.8936 1.86639 14.3828 1.93829V1.69852C14.3828 0.761955 13.6208 0 12.6842 0C11.7477 0 10.9857 0.761955 10.9857 1.69858V1.9384C10.4749 1.86662 9.93718 2.02635 9.54513 2.41829C8.91085 3.05262 8.88454 4.06764 9.4652 4.73409C9.27492 4.84765 9.1085 4.99707 8.97518 5.17407L8.80561 5.00444C8.48475 4.68358 8.05825 4.50692 7.6045 4.50692C7.15081 4.50692 6.7243 4.68364 6.40344 5.00444C5.74121 5.66679 5.74121 6.74433 6.40344 7.40662L6.57653 7.5797C6.43947 7.6793 6.31795 7.79869 6.21594 7.93396L6.04637 7.76439C5.72545 7.44353 5.29895 7.26687 4.84525 7.26687C4.39156 7.26687 3.96506 7.44359 3.6442 7.76439C3.32334 8.08519 3.14668 8.51175 3.14668 8.96545C3.14668 9.41914 3.3234 9.84564 3.6442 10.1665L3.81383 10.3361C3.40156 10.6463 3.13449 11.1396 3.13449 11.694C3.13449 12.6101 3.86346 13.3592 4.77184 13.3916C4.68592 13.6878 4.6828 14.0019 4.76281 14.2997C4.77318 14.3385 4.78566 14.3761 4.79855 14.4135H2.72369C2.6351 14.4135 2.54766 14.4336 2.46795 14.4722C2.38824 14.5109 2.31833 14.5671 2.26348 14.6367C2.20864 14.7062 2.17029 14.7873 2.15131 14.8739C2.13233 14.9604 2.13322 15.0501 2.15392 15.1363L3.1025 19.0872C3.00968 19.1272 2.91794 19.1696 2.8274 19.2145C1.7222 19.7671 1.11347 20.549 1.11347 21.4164C1.11347 22.2838 1.7222 23.0658 2.8274 23.6184C2.88767 23.6484 2.94848 23.6774 3.0098 23.7053C2.66861 23.8151 2.34669 23.9419 2.04874 24.0849C0.727745 24.7189 0.000244141 25.6128 0.000244141 26.6017C0.000244141 27.5907 0.727687 28.4846 2.04874 29.1186C3.23293 29.687 4.79428 30 6.44533 30C6.48248 30 6.51934 29.999 6.55643 29.9987H25.1238C25.2567 29.9987 25.3857 29.9535 25.4896 29.8706C25.5934 29.7876 25.6659 29.6718 25.6953 29.5421L28.9582 15.1286C28.9594 15.1231 28.9599 15.1175 28.961 15.112L29.9296 10.8327C30.1183 9.99934 29.9206 9.13853 29.3874 8.47097ZM21.871 15.5853L21.2123 19.3359H16.1412V15.5853L21.871 15.5853ZM20.6921 22.2973C20.1756 22.1184 19.5307 22.0299 18.7858 22.2038C18.7253 21.4919 18.474 20.9337 18.1722 20.5077H21.0064L20.6921 22.2973ZM20.9666 23.7478C20.8314 24.1694 20.4506 24.9465 19.4351 25.2765C19.3856 25.2925 19.336 25.3065 19.2864 25.3196C18.6588 24.8042 17.9807 24.617 17.4541 24.5596C17.6277 24.2235 17.9283 23.8322 18.4432 23.5672C18.567 23.5038 18.6956 23.4505 18.8279 23.4078C19.7099 23.1211 20.4015 23.3869 20.8106 23.6421C20.8167 23.6462 20.8229 23.6501 20.8291 23.6539C20.876 23.6836 20.9219 23.7149 20.9666 23.7478ZM18.7425 9.54922C18.8496 9.59352 18.9674 9.6051 19.081 9.58249C19.1947 9.55988 19.2991 9.5041 19.3811 9.42219L20.2101 8.59314C20.2589 8.54407 20.317 8.50516 20.3809 8.47867C20.4449 8.45218 20.5134 8.43863 20.5826 8.43881C20.6518 8.43862 20.7204 8.45216 20.7843 8.47866C20.8483 8.50515 20.9063 8.54406 20.9551 8.59314C21.0042 8.64193 21.0431 8.69997 21.0696 8.7639C21.096 8.82783 21.1096 8.89637 21.1094 8.96556C21.1096 9.03476 21.096 9.10332 21.0695 9.16724C21.0431 9.23117 21.0041 9.28921 20.9551 9.33799L20.126 10.1671C20.0441 10.249 19.9883 10.3534 19.9657 10.4671C19.9431 10.5807 19.9547 10.6985 19.9991 10.8056C20.0434 10.9127 20.1185 11.0042 20.2148 11.0685C20.3112 11.1329 20.4244 11.1673 20.5403 11.1673H20.5949C20.8853 11.1673 21.1216 11.4037 21.1216 11.6941C21.1216 11.9846 20.8853 12.2209 20.5949 12.2209H19.3823C19.2434 12.2208 19.109 12.2702 19.0031 12.36C18.8972 12.4499 18.8266 12.5745 18.804 12.7116C18.7815 12.8486 18.8083 12.9892 18.8798 13.1083C18.9513 13.2274 19.0627 13.3173 19.1943 13.3618C19.456 13.4505 19.6049 13.7292 19.5333 13.9965C19.4581 14.277 19.1685 14.4442 18.8882 14.369L18.8805 14.367L16.6608 13.8038C16.6238 13.6887 16.5748 13.5779 16.5145 13.4731C16.3604 13.206 16.1361 12.9861 15.8659 12.8374C16.1598 12.5221 16.3209 12.1136 16.3209 11.6805C16.3209 11.2267 16.1442 10.8002 15.8234 10.4793C15.6813 10.337 15.5149 10.2211 15.3321 10.1372C15.3944 10.0792 15.4698 10.0373 15.5519 10.0151C15.8191 9.9435 16.098 10.0924 16.1866 10.3541C16.2312 10.4855 16.3211 10.5968 16.4402 10.6682C16.5592 10.7395 16.6998 10.7663 16.8367 10.7437C16.9737 10.7212 17.0982 10.6507 17.1881 10.5449C17.2779 10.4392 17.3274 10.3049 17.3275 10.1661V8.95349C17.3275 8.66304 17.5638 8.42673 17.8543 8.42673C18.1447 8.42673 18.381 8.66304 18.381 8.95349V9.00805C18.381 9.12389 18.4153 9.23715 18.4796 9.33348C18.544 9.42982 18.6355 9.5049 18.7425 9.54922ZM11.0914 23.6048C11.0952 23.6363 11.1345 23.9301 11.2886 24.3225C11.1431 24.2371 10.9941 24.1578 10.842 24.0849C10.544 23.9419 10.2221 23.8151 9.88093 23.7053C9.94225 23.6774 10.0031 23.6484 10.0633 23.6184C11.1685 23.0657 11.7773 22.2838 11.7773 21.4164C11.7773 21.0998 11.6958 20.7946 11.539 20.5077H15.1169C14.8165 20.933 14.5654 21.4911 14.505 22.2039C12.7294 21.7888 11.5183 22.8637 11.2694 23.1095C11.2031 23.1725 11.1526 23.2501 11.1216 23.3361C11.0907 23.4221 11.0804 23.5141 11.0914 23.6048ZM11.2313 12.9103L10.3738 12.0528C10.1683 11.8474 10.1683 11.5132 10.3737 11.3078C10.5791 11.1024 10.9134 11.1023 11.1187 11.3078L11.1572 11.3464C11.2392 11.4283 11.3436 11.484 11.4572 11.5066C11.5709 11.5292 11.6887 11.5176 11.7957 11.4733C11.9028 11.4289 11.9943 11.3538 12.0587 11.2575C12.1231 11.1612 12.1574 11.0479 12.1575 10.932V9.75951C12.1575 9.469 12.3938 9.23269 12.6842 9.23269C12.9747 9.23269 13.211 9.469 13.211 9.75951V10.932C13.211 11.0479 13.2454 11.1612 13.3098 11.2575C13.3742 11.3538 13.4657 11.4289 13.5727 11.4733C13.6798 11.5176 13.7976 11.5292 13.9112 11.5066C14.0249 11.484 14.1293 11.4283 14.2112 11.3464L14.2498 11.3078C14.3415 11.2162 14.4639 11.1618 14.5933 11.1551C14.596 11.155 14.5986 11.1553 14.6012 11.1552C14.6046 11.155 14.6079 11.1544 14.6113 11.1542C14.6823 11.1526 14.7528 11.1653 14.8187 11.1917C14.8847 11.2181 14.9445 11.2575 14.9948 11.3077C15.0438 11.3565 15.0827 11.4146 15.1092 11.4785C15.1357 11.5425 15.1492 11.611 15.149 11.6802C15.149 11.8208 15.0943 11.9531 14.9947 12.0526L14.1373 12.9101C14.039 13.0083 13.9789 13.1382 13.9675 13.2767C13.9562 13.4151 13.9944 13.5531 14.0753 13.666C14.1563 13.7789 14.2747 13.8593 14.4095 13.893C14.5443 13.9266 14.6866 13.9113 14.8111 13.8497C15.0588 13.7273 15.3612 13.8192 15.4996 14.0588C15.5616 14.1659 15.5837 14.2915 15.562 14.4133L9.80657 14.4134C9.78486 14.2916 9.80698 14.166 9.86903 14.059C10.0074 13.8193 10.3099 13.7274 10.5575 13.8498C10.682 13.9113 10.8243 13.9266 10.9591 13.8929C11.0938 13.8593 11.2122 13.7788 11.2932 13.666C11.3741 13.5531 11.4123 13.4152 11.401 13.2768C11.3896 13.1383 11.3295 13.0085 11.2313 12.9103ZM14.9693 15.5928V19.3359H10.2911C10.151 19.2566 10.0071 19.184 9.85995 19.1184L9.23938 15.5853L14.9693 15.5928ZM14.4626 23.4076C14.5114 23.4235 14.5592 23.4411 14.6065 23.4595C14.8105 24.2459 15.2488 24.7968 15.6412 25.1534C15.3041 25.3223 14.8335 25.461 14.2645 25.3743L14.2638 25.3741C14.1253 25.3526 13.9887 25.32 13.8555 25.2765C12.8411 24.9469 12.4599 24.1699 12.3242 23.7476C12.698 23.4726 13.4561 23.0807 14.4626 23.4076ZM10.3737 3.24692C10.5792 3.04155 10.9134 3.04149 11.119 3.24721L11.1576 3.28571C11.2395 3.36757 11.344 3.42329 11.4576 3.44583C11.5712 3.46837 11.689 3.45672 11.796 3.41235C11.903 3.36798 11.9945 3.29288 12.0588 3.19654C12.1232 3.1002 12.1575 2.98695 12.1575 2.8711V1.69858C12.1575 1.40813 12.3938 1.17182 12.6843 1.17182C12.9747 1.17182 13.2111 1.40813 13.2111 1.69858V2.8711C13.2111 2.98695 13.2454 3.1002 13.3097 3.19654C13.3741 3.29288 13.4656 3.36798 13.5726 3.41235C13.6796 3.45672 13.7974 3.46837 13.911 3.44583C14.0246 3.42329 14.129 3.36757 14.211 3.28571L14.2499 3.24692C14.4552 3.04155 14.7894 3.04143 14.9949 3.24692C15.0439 3.29572 15.0828 3.35377 15.1093 3.41771C15.1358 3.48165 15.1493 3.5502 15.1492 3.6194C15.1492 3.76003 15.0944 3.89233 14.9948 3.99188L14.3443 4.64233C13.7698 4.89933 13.3629 5.46587 13.3381 6.12886C13.1257 6.06868 12.9037 6.05047 12.6844 6.07525C12.4651 6.05048 12.243 6.06869 12.0307 6.12886C12.0058 5.46593 11.5989 4.89938 11.0245 4.64239L10.3739 3.99182C10.1684 3.78645 10.1684 3.45223 10.3737 3.24692ZM7.23213 5.83314C7.43751 5.62771 7.77161 5.62771 7.97704 5.83314L8.80608 6.66218C8.88804 6.7441 8.99244 6.79987 9.10609 6.82247C9.21974 6.84506 9.33754 6.83345 9.44459 6.78911C9.55164 6.74476 9.64315 6.66968 9.70754 6.57334C9.77193 6.477 9.80631 6.36374 9.80634 6.24786V6.19337C9.80634 5.90292 10.0426 5.66661 10.3331 5.66661C10.6236 5.66661 10.8599 5.90292 10.8599 6.19337V7.40591C10.8599 7.54482 10.9092 7.67921 10.9991 7.78512C11.089 7.89103 11.2135 7.96157 11.3506 7.98415C11.4877 8.00673 11.6283 7.97989 11.7474 7.9084C11.8665 7.83692 11.9563 7.72545 12.0009 7.59388C12.0828 7.35177 12.3346 7.20165 12.5861 7.24425C12.6511 7.25533 12.7176 7.25533 12.7826 7.24425C13.0344 7.20165 13.2859 7.35183 13.3678 7.59388C13.4125 7.72531 13.5024 7.83662 13.6214 7.90798C13.7405 7.97934 13.881 8.00612 14.018 7.98356C14.155 7.96099 14.2795 7.89054 14.3694 7.78476C14.4592 7.67898 14.5086 7.54472 14.5088 7.40591V6.19337C14.5088 5.90292 14.7451 5.66661 15.0355 5.66661C15.326 5.66661 15.5623 5.90292 15.5623 6.19337V6.24786C15.5623 6.36375 15.5967 6.47703 15.6611 6.57339C15.7254 6.66975 15.817 6.74485 15.924 6.78919C16.0311 6.83354 16.1489 6.84514 16.2626 6.82254C16.3762 6.79993 16.4806 6.74412 16.5626 6.66218L17.3917 5.83314C17.5972 5.62771 17.9313 5.62777 18.1366 5.83314C18.1856 5.88193 18.2245 5.93998 18.251 6.00392C18.2775 6.06786 18.291 6.13641 18.2908 6.20562C18.291 6.27481 18.2775 6.34336 18.251 6.40728C18.2245 6.47121 18.1856 6.52925 18.1366 6.57804L17.3964 7.31785C16.7003 7.51291 16.1833 8.14091 16.1565 8.89209C15.8603 8.80617 15.5462 8.80305 15.2484 8.88306C14.8872 8.97986 14.5796 9.19332 14.3583 9.4741C14.2221 8.67306 13.5235 8.06099 12.6842 8.06099C11.8677 8.06099 11.1841 8.64025 11.0221 9.4093C10.8002 9.15348 10.5067 8.97016 10.1794 8.88306C9.88157 8.80308 9.56751 8.8062 9.27132 8.89209C9.24354 8.11255 8.68766 7.4655 7.95167 7.29757L7.23208 6.57798C7.18301 6.52919 7.14411 6.47115 7.11763 6.40722C7.09115 6.3433 7.07761 6.27475 7.0778 6.20556C7.07763 6.13636 7.09118 6.06782 7.11767 6.00389C7.14416 5.93997 7.18307 5.88193 7.23213 5.83314ZM4.30637 11.694C4.30637 11.4036 4.54268 11.1673 4.83313 11.1673H4.88768C5.00356 11.1673 5.11685 11.1329 5.2132 11.0685C5.30956 11.0042 5.38466 10.9126 5.42901 10.8056C5.47335 10.6985 5.48496 10.5807 5.46235 10.467C5.43974 10.3534 5.38394 10.249 5.30199 10.167L4.47295 9.33793C4.26758 9.13256 4.26758 8.7984 4.47295 8.59303C4.57244 8.49353 4.70469 8.43875 4.84537 8.43875C4.98605 8.43875 5.11836 8.49359 5.21785 8.59308L6.0469 9.42213C6.12885 9.50404 6.23325 9.55982 6.3469 9.58241C6.46056 9.605 6.57835 9.5934 6.68541 9.54905C6.79246 9.50471 6.88396 9.42962 6.94835 9.33329C7.01274 9.23695 7.04712 9.12368 7.04715 9.00781V8.95326C7.04715 8.66281 7.28346 8.4265 7.57391 8.4265C7.86436 8.4265 8.10067 8.66281 8.10067 8.95326V10.1659C8.10065 10.3048 8.14997 10.4392 8.23985 10.5451C8.32973 10.651 8.4543 10.7215 8.59136 10.7441C8.72842 10.7667 8.86904 10.7398 8.98814 10.6684C9.10724 10.5969 9.19707 10.4854 9.24161 10.3538C9.3302 10.0921 9.60899 9.94314 9.87624 10.0149C9.95005 10.0348 10.0186 10.0707 10.0771 10.1199C9.87847 10.2046 9.69791 10.3265 9.54519 10.4792C8.89737 11.1269 8.88325 12.1721 9.50265 12.8372C9.23245 12.986 9.00817 13.2059 8.85413 13.4731C8.79076 13.5828 8.73976 13.6993 8.70208 13.8202L6.54752 14.3669L6.53991 14.3689C6.25953 14.4441 5.96996 14.277 5.89473 13.9964C5.82313 13.7291 5.97201 13.4503 6.23369 13.3617C6.36526 13.3171 6.47673 13.2273 6.54821 13.1082C6.6197 12.9891 6.64654 12.8485 6.62396 12.7114C6.60138 12.5744 6.53084 12.4498 6.42493 12.3599C6.31902 12.2701 6.18463 12.2207 6.04572 12.2207H4.83313C4.54273 12.2208 4.30637 11.9845 4.30637 11.694ZM8.04964 15.5854L8.59632 18.6977C7.92835 18.5407 7.19809 18.4577 6.44545 18.4577C5.6641 18.4577 4.90701 18.5472 4.21865 18.7161L3.46695 15.5854H8.04964ZM2.2854 21.4164C2.2854 20.5729 4.06449 19.6294 6.44539 19.6294C8.8263 19.6294 10.6054 20.5728 10.6054 21.4164C10.6054 22.2599 8.8263 23.2035 6.44539 23.2035C4.06449 23.2035 2.2854 22.26 2.2854 21.4164ZM10.3349 28.0622C9.33249 28.5434 7.99549 28.8132 6.55983 28.8269H6.44539C6.43825 28.8269 6.43127 28.8277 6.42418 28.8279C4.95318 28.8254 3.58004 28.5537 2.55593 28.0622C1.67656 27.6401 1.17218 27.1078 1.17218 26.6017C1.17218 26.0957 1.6765 25.5634 2.55587 25.1413C3.58496 24.6473 4.96637 24.3753 6.44539 24.3753C7.92442 24.3753 9.30577 24.6474 10.3349 25.1413C11.2143 25.5634 11.7186 26.0957 11.7186 26.6017C11.7186 27.1078 11.2143 27.6401 10.3349 28.0622ZM11.3781 28.827C12.081 28.3941 12.5534 27.8725 12.7644 27.3001C12.6314 27.8819 12.6742 28.4132 12.7645 28.827H11.3781ZM12.8536 26.9827C12.8779 26.8576 12.8905 26.7305 12.8905 26.6017C12.8905 26.4318 12.8686 26.2648 12.8263 26.1013C12.9418 26.1658 13.0608 26.2239 13.1827 26.2753C13.0471 26.4982 12.9368 26.7355 12.8536 26.9827ZM16.122 27.4861C16.0586 27.6116 15.9852 27.7316 15.9025 27.8452C15.32 28.6468 14.5403 28.8084 14.076 28.827H13.9745C13.8288 28.3859 13.6918 27.545 14.3129 26.6902C14.3437 26.648 14.3759 26.6066 14.4092 26.5663C14.4786 26.5704 14.5471 26.5731 14.6143 26.5731C15.3304 26.5731 15.9163 26.3467 16.337 26.1066C16.3938 26.4796 16.3807 26.9709 16.122 27.4861ZM16.6145 28.827C16.6247 28.8155 16.635 28.805 16.6451 28.7933C16.655 28.8049 16.6652 28.8156 16.6751 28.827H16.6145ZM16.3316 24.1959C16.0667 23.9273 15.7893 23.5224 15.6962 22.9541L15.6961 22.9529C15.6739 22.8149 15.6628 22.6754 15.663 22.5357C15.663 21.4691 16.2842 20.8665 16.6439 20.6069C17.0209 20.8775 17.6279 21.4775 17.6279 22.5357C17.6279 22.5868 17.626 22.6376 17.6231 22.688C16.938 23.1252 16.5496 23.7124 16.3316 24.1959ZM19.3156 28.827H19.2067C18.743 28.807 17.9677 28.6435 17.3877 27.8453C17.3576 27.8035 17.3286 27.7608 17.3009 27.7173C17.5976 26.9615 17.5664 26.2587 17.4585 25.7398C17.8307 25.801 18.2937 25.9655 18.7036 26.3705C18.8033 26.4695 18.8949 26.5764 18.9773 26.6903C19.5983 27.545 19.4613 28.3859 19.3156 28.827ZM24.6558 28.827H20.526C20.6673 28.1795 20.6931 27.2425 20.1077 26.2755C21.9481 25.5008 22.1893 23.6858 22.1992 23.6048C22.2102 23.5141 22.1998 23.4221 22.1689 23.3362C22.138 23.2502 22.0875 23.1726 22.0213 23.1097C21.9749 23.0637 21.8923 22.9864 21.7769 22.8947L22.1962 20.5077H26.539L24.6558 28.827ZM26.8043 19.3359H22.4021L23.0608 15.5853H23.8546L23.8561 15.5853L23.8582 15.5853H27.6533L26.8043 19.3359ZM28.7868 10.5739L27.9178 14.4133H24.5891L25.6204 9.85713C25.789 9.1124 26.44 8.59226 27.2036 8.59226C27.6999 8.59226 28.162 8.81463 28.4718 9.20234C28.7816 9.59 28.8964 10.0899 28.7868 10.5739Z" fill="#E0E3E4"/>
<path d="M5.73774 27.2241C3.9078 27.0167 3.16846 26.3967 3.16846 26.1731C3.16846 25.8495 2.90608 25.5872 2.58252 25.5872C2.25897 25.5872 1.99658 25.8495 1.99658 26.1731C1.99658 27.2873 3.37957 28.1362 5.60573 28.3885C5.62817 28.391 5.65038 28.3922 5.67247 28.3922C5.96649 28.3922 6.22003 28.1713 6.25395 27.8722C6.2904 27.5508 6.0593 27.2605 5.73774 27.2241ZM7.75144 27.2262C7.42788 27.2262 7.1655 27.4886 7.1655 27.8121C7.1655 28.1357 7.42782 28.3981 7.75138 28.3981H7.75402C8.07757 28.3981 8.33867 28.1357 8.33867 27.8121C8.33867 27.4886 8.07499 27.2262 7.75144 27.2262Z" fill="#E0E3E4"/>
</g>
<defs>
<clipPath id="clip0_163_3892">
<rect width="30" height="30" fill="white"/>
</clipPath>
</defs>
</svg>

<svg width="30" height="30" fill="none" xmlns="http://www.w3.org/2000/svg"><g clip-path="url(#clip0_163_3892)" fill="#E0E3E4"><path d="M27.238 10.328a.59.59 0 00-.828 0 .59.59 0 00.414 1 .589.589 0 00.586-.586.589.589 0 00-.172-.414z"/><path d="M29.387 8.471a2.781 2.781 0 00-2.183-1.05 2.78 2.78 0 00-2.726 2.177l-1.09 4.815h-2.759a1.689 1.689 0 00.027-1.022 1.697 1.697 0 00.958-3.056l.17-.169c.32-.32.497-.747.497-1.2 0-.454-.176-.88-.497-1.202a1.687 1.687 0 00-1.201-.497c-.454 0-.88.177-1.201.497l-.17.17a1.711 1.711 0 00-.395-.379l.148-.148a1.7 1.7 0 00-1.201-2.9c-.454 0-.88.177-1.201.497l-.17.17a1.71 1.71 0 00-.49-.44c.27-.31.418-.7.418-1.115a1.698 1.698 0 00-1.938-1.681v-.24A1.7 1.7 0 0012.684 0a1.7 1.7 0 00-1.698 1.699v.24a1.699 1.699 0 00-1.52 2.795 1.704 1.704 0 00-.49.44l-.17-.17a1.687 1.687 0 00-1.201-.497c-.454 0-.88.177-1.202.497a1.7 1.7 0 000 2.403l.174.173c-.138.1-.26.219-.361.354l-.17-.17a1.688 1.688 0 00-1.2-.497 1.694 1.694 0 00-1.699 1.698c0 .454.176.88.497 1.201l.17.17a1.697 1.697 0 00.958 3.056 1.688 1.688 0 00.027 1.022H2.724a.587.587 0 00-.57.722l.949 3.951c-.093.04-.185.083-.276.128-1.105.552-1.714 1.334-1.714 2.201 0 .868.61 1.65 1.714 2.202.06.03.121.06.183.087-.341.11-.663.237-.961.38C.728 24.719 0 25.613 0 26.602c0 .989.728 1.883 2.049 2.517 1.184.568 2.745.881 4.396.881l.111-.001h18.568a.587.587 0 00.571-.457l3.263-14.413.003-.017.969-4.28a2.781 2.781 0 00-.543-2.361zm-7.516 7.114l-.659 3.75h-5.07v-3.75h5.729zm-1.179 6.712a3.386 3.386 0 00-1.906-.093 3.387 3.387 0 00-.614-1.696h2.834l-.314 1.79zm.275 1.45a2.326 2.326 0 01-1.68 1.573 3.45 3.45 0 00-1.833-.76c.174-.336.474-.728.99-.993a2.75 2.75 0 01.384-.16 2.302 2.302 0 012.139.34zM18.743 9.55a.586.586 0 00.638-.127l.83-.829a.524.524 0 01.744 0 .523.523 0 010 .745l-.829.83a.586.586 0 00.414 1h.055a.527.527 0 010 1.053h-1.213a.586.586 0 00-.188 1.14.527.527 0 01-.306 1.008l-.008-.002-2.22-.563a1.69 1.69 0 00-.795-.966c.295-.316.456-.724.456-1.158a1.688 1.688 0 00-.989-1.543.523.523 0 01.855.217.586.586 0 001.14-.188V8.953a.527.527 0 011.054 0v.055a.586.586 0 00.361.541zM11.09 23.605c.004.031.043.325.198.718a6.037 6.037 0 00-.447-.238 7.62 7.62 0 00-.961-.38c.061-.028.122-.057.182-.087 1.105-.552 1.714-1.334 1.714-2.202 0-.316-.081-.621-.238-.908h3.578a3.39 3.39 0 00-.612 1.696c-1.776-.415-2.987.66-3.236.905a.587.587 0 00-.178.496zm.14-10.695l-.857-.857a.527.527 0 01.745-.745l.038.038a.586.586 0 001-.414V9.76a.527.527 0 011.054 0v1.172a.586.586 0 001 .414l.039-.038a.524.524 0 01.343-.153h.019a.526.526 0 01.384.898l-.858.857a.586.586 0 00.674.94.527.527 0 01.751.563H9.807a.527.527 0 01.75-.564.586.586 0 00.674-.939zm3.738 2.683v3.743H10.29a5.048 5.048 0 00-.431-.218l-.62-3.533 5.73.008zm-.506 7.815c.048.015.096.033.144.051a3.451 3.451 0 001.034 1.694 2.274 2.274 0 01-1.377.221 2.6 2.6 0 01-.409-.098 2.327 2.327 0 01-1.53-1.528 2.315 2.315 0 012.138-.34zm-4.09-20.161a.527.527 0 01.746 0l.039.039a.586.586 0 001-.415V1.7a.527.527 0 011.053 0v1.17a.586.586 0 001 .415l.039-.04a.527.527 0 01.745.746l-.65.65a1.7 1.7 0 00-1.007 1.487 1.698 1.698 0 00-.654-.054 1.699 1.699 0 00-.653.054 1.701 1.701 0 00-1.007-1.487l-.65-.65a.527.527 0 010-.745zm-3.14 2.586a.527.527 0 01.744 0l.83.83a.586.586 0 001-.415v-.055a.527.527 0 011.053 0v1.213a.586.586 0 001.14.188.53.53 0 01.586-.35.585.585 0 00.197 0 .53.53 0 01.585.35.586.586 0 001.14-.188V6.193a.527.527 0 011.054 0v.055a.586.586 0 001 .414l.83-.829a.527.527 0 01.745.745l-.74.74a1.702 1.702 0 00-1.24 1.574 1.688 1.688 0 00-1.799.582 1.701 1.701 0 00-1.674-1.413c-.816 0-1.5.58-1.662 1.348a1.691 1.691 0 00-1.75-.517 1.702 1.702 0 00-1.32-1.594l-.72-.72a.523.523 0 010-.745zm-2.927 5.861c0-.29.237-.527.527-.527h.055a.586.586 0 00.414-1l-.829-.83a.527.527 0 01.745-.744l.829.83a.586.586 0 001-.415v-.055a.527.527 0 011.054 0v1.213a.586.586 0 001.14.188.527.527 0 01.836-.234 1.7 1.7 0 00-.574 2.717 1.689 1.689 0 00-.8.983l-2.155.547-.008.002a.527.527 0 01-.306-1.007.586.586 0 00-.188-1.141H4.833a.527.527 0 01-.527-.527zm3.744 3.891l.546 3.113a9.464 9.464 0 00-2.15-.24c-.782 0-1.539.09-2.227.258l-.752-3.13H8.05zm-5.765 5.831c0-.843 1.78-1.787 4.16-1.787 2.381 0 4.16.944 4.16 1.787 0 .844-1.779 1.787-4.16 1.787-2.38 0-4.16-.943-4.16-1.787zm8.05 6.646c-1.003.481-2.34.751-3.775.765h-.135c-1.472-.002-2.845-.273-3.87-.765-.878-.422-1.383-.954-1.383-1.46s.505-1.039 1.384-1.46c1.029-.495 2.41-.767 3.89-.767 1.478 0 2.86.272 3.889.766.88.422 1.384.955 1.384 1.46 0 .507-.505 1.04-1.384 1.461zm1.043.765c.703-.433 1.175-.955 1.386-1.527a3.499 3.499 0 000 1.527h-1.386zm1.476-1.844a1.995 1.995 0 00-.028-.882c.116.065.235.123.357.174-.136.223-.246.46-.33.708zm3.268.503a2.608 2.608 0 01-.22.36 2.32 2.32 0 01-1.826.981h-.101a2.315 2.315 0 01.338-2.137c.03-.042.063-.083.096-.124a3.465 3.465 0 001.928-.46 2.27 2.27 0 01-.215 1.38zm.492 1.341l.031-.034.03.034h-.06zm-.282-4.631a2.273 2.273 0 01-.636-1.242v-.001a2.603 2.603 0 01-.033-.417c0-1.067.621-1.67.98-1.93a2.315 2.315 0 01.98 2.082 3.452 3.452 0 00-1.291 1.508zm2.984 4.631h-.11a2.32 2.32 0 01-1.905-1.11 3.45 3.45 0 00.158-1.977c.372.061.835.226 1.245.63.1.1.19.206.273.32.621.855.484 1.696.339 2.137zm5.34 0h-4.13a3.425 3.425 0 00-.418-2.552c1.84-.774 2.081-2.59 2.091-2.67a.585.585 0 00-.178-.495 3.026 3.026 0 00-.244-.215l.42-2.387h4.342l-1.883 8.319zm2.148-9.491h-4.402l.659-3.75h4.592l-.849 3.75zm1.983-8.762l-.87 3.84H24.59l1.031-4.557a1.615 1.615 0 011.584-1.265c.496 0 .958.223 1.268.61.31.388.424.888.315 1.372z"/><path d="M5.738 27.224c-1.83-.207-2.57-.827-2.57-1.05a.586.586 0 00-1.171 0c0 1.113 1.383 1.962 3.609 2.215a.586.586 0 00.132-1.164zm2.013.002a.586.586 0 000 1.172h.003a.585.585 0 10-.003-1.172z"/></g><defs><clipPath id="clip0_163_3892"><path fill="#fff" d="M0 0h30v30H0z"/></clipPath></defs></svg>
